!!!COM: Palestrina, Giovanni Perluigi da
!!!OPR: Missa De Beata Marie Virginis (III)
!!!OMD: Benedictus
!!!OTL: B.Hosanna
**kern	**kern	**kern	**kern	**kern
*Ibass	*Itenor	*Itenor	*Icalto	*Icant
!Bassus	!Tenor 2	!Tenor 1	!Altus	!Cantus
*clefF4	*clefGv2	*clefGv2	*clefG2	*clefG2
*k[]	*k[]	*k[]	*k[]	*k[]
*G:mix	*G:mix	*G:mix	*G:mix	*G:mix
*M4/2	*M4/2	*M4/2	*M4/2	*M4/2
=27	=27	=27	=27	=27
0r	1d	1f#	1a	1dd
.	2G	2g	2b	2dd
.	2d	2f#	2a	2dd
=28	=28	=28	=28	=28
0r	2c	2e	4a	2ee
.	.	.	4g	.
.	2B	2g	1g	2dd
.	1A	1a	.	1cc
.	.	.	2f#	.
=29	=29	=29	=29	=29
1G	2G	2d	2g	1b
.	2B	2.g	2e	.
2C	2c	.	2d	1r
.	.	4f	.	.
2G	2B	2e	2e	.
=30	=30	=30	=30	=30
2F	2A	2d	2.a	0r
2E	2c	1c	.	.
.	.	.	4g	.
1D	1d	.	1f	.
.	.	2B	.	.
=31	=31	=31	=31	=31
[0C	2G	1c	[0e	1gg
.	2G	.	.	.
.	2A	2r	.	2cc
.	[2c	2g	.	[2gg
=32	=32	=32	=32	=32
1C]	2c]	2c	1e]	4gg]
.	.	.	.	4ff
.	2G	2g	.	2ee
1r	2B-	2f	2r	2dd
.	2c	2e	2g	[2cc
=33	=33	=33	=33	=33
1G	1G	1d	1g	2cc]
.	.	.	.	2b
1C	1r	4c	2c	1cc
.	.	4d	.	.
.	.	4e	[2cc	.
.	.	4c	.	.
=34	=34	=34	=34	=34
1.G	0d	2d	2cc]	2r
.	.	2G	4b	2dd
.	.	.	4a	.
.	.	2r	2b	2g
2F	.	2A	[2a	[2dd
=35	=35	=35	=35	=35
1E	1G	2B	2a]	2dd]
.	.	4G	1g	2cc
.	.	4A	.	.
1D	1d	4B	.	2b
.	.	4c	.	.
.	.	2d	2f	2a
=36	=36	=36	=36	=36
2E	1.c	2g	2e	1cc
1F	.	2f	2a	.
.	.	4f	2a	[1dd
.	.	4e	.	.
2G	2B	4d	[2g	.
.	.	4c	.	.
=37	=37	=37	=37	=37
0D	0A	0d	2g]	0dd]
.	.	.	4f#	.
.	.	.	4e	.
.	.	.	1f#	.
=38	=38	=38	=38	=38
[0G	[0G	[0d	[0g	[0b
=39	=39	=39	=39	=39
0G]	0G]	0d]	0g]	0b]
==	==	==	==	==
*-	*-	*-	*-	*-
!!!CDT: 1525/^1526/-1594/2/2
!!!OCY: Italia
!!!AGN: Mass (Paraphrase)
!!!AST: renaissance, vocal
!!!ASW: Gregorian Mass
!!!PWK: Masses, Book Mantuan I
!!!RNB: Cadence finals: D
!!!YOR: Le Opere Complete, v. 18, p. 162
!!!YOO: Rome, Italy: Fratelli Scalera
!!!END: 1992//
!!!EED: John Miller
!!!YEC: Copyright 2000, John Miller
!!!YEN: United States of America
!!!YEM: Rights to all derivative electronic formats reserved.
!!!YEM: Refer to licensing agreement for further details.
!!!YEM: This file must be accompanied by the licensing agreement.
!!!YEM: A copy of the licensing agreement may be found at http://www.music-cog.ohio-state.edu/HumdrumDatabases/Palestrina/license.txt
!!!EMD: converted to Humdrum by Bret Aarden
